svgs/duotone/face-woozy.svg

<svg xmlns="http://www.w3.org/2000/svg" viewBox="0 0 512 512"><!--! Font Awesome Pro 6.4.0 by @fontawesome - https://fontawesome.com License - https://fontawesome.com/license (Commercial License) Copyright 2023 Fonticons, Inc. --><defs><style>.fa-secondary{opacity:.4}</style></defs><path class="fa-primary" d="M205.3 120.9c4.9-7.4 2.9-17.3-4.4-22.2s-17.3-2.9-22.2 4.4c-23.2 34.8-58.4 53.2-71.7 57.7c-8.4 2.8-12.9 11.9-10.1 20.2s11.9 12.9 20.2 10.1c18.6-6.2 60.3-28.3 88.3-70.3zm6.6 118.6c8.6-2.1 13.8-10.8 11.6-19.4s-10.8-13.8-19.4-11.6l-64 16c-8.6 2.1-13.8 10.8-11.6 19.4s10.8 13.8 19.4 11.6l64-16zM336 272c17.7 0 32-28.7 32-64s-14.3-64-32-64s-32 28.7-32 64s14.3 64 32 64z"/><path class="fa-secondary" d="M256 512A256 256 0 1 0 256 0a256 256 0 1 0 0 512zM411.3 347.3L372 386.6c-13.7 13.7-32.3 21.4-51.7 21.4c-13.7 0-27.1-3.8-38.7-11.1L267.4 388c-18.2-11.4-40.8-13.4-60.7-5.4c-30.4 12.2-64.8 8.6-92-9.6l-11.5-7.7c-7.4-4.9-9.3-14.8-4.4-22.2s14.8-9.3 22.2-4.4l11.5 7.7c18.5 12.3 41.8 14.7 62.4 6.5c29.4-11.8 62.7-8.8 89.6 8l14.2 8.9c6.5 4.1 14.1 6.2 21.8 6.2c10.9 0 21.3-4.3 29-12l39.3-39.3c6.2-6.2 16.4-6.2 22.6 0s6.2 16.4 0 22.6zM200.9 98.7c7.4 4.9 9.3 14.8 4.4 22.2c-28 42-69.6 64.1-88.3 70.3c-8.4 2.8-17.4-1.7-20.2-10.1s1.7-17.4 10.1-20.2c13.4-4.5 48.5-22.9 71.7-57.7c4.9-7.4 14.8-9.3 22.2-4.4zm22.6 121.4c2.1 8.6-3.1 17.3-11.6 19.4l-64 16c-8.6 2.1-17.3-3.1-19.4-11.6s3.1-17.3 11.6-19.4l64-16c8.6-2.1 17.3 3.1 19.4 11.6zM336 272c-17.7 0-32-28.7-32-64s14.3-64 32-64s32 28.7 32 64s-14.3 64-32 64z"/></svg>

<svg xmlns="http://www.w3.org/2000/svg" viewBox="0 0 512 512"><!--! Font Awesome Pro 6.3.0 by @fontawesome - https://fontawesome.com License - https://fontawesome.com/license (Commercial License) Copyright 2023 Fonticons, Inc. --><defs><style>.fa-secondary{opacity:.4}</style></defs><path class="fa-primary" d="M117.1 191.2C108.7 193.1 99.62 189.4 96.82 181.1C94.03 172.7 98.56 163.6 106.9 160.8C120.3 156.4 155.5 137.1 178.7 103.1C183.6 95.77 193.5 93.79 200.9 98.69C208.2 103.6 210.2 113.5 205.3 120.9C177.3 162.8 135.7 184.1 117.1 191.2L117.1 191.2zM147.9 255.5C139.3 257.7 130.6 252.5 128.5 243.9C126.3 235.3 131.5 226.6 140.1 224.5L204.1 208.5C212.7 206.3 221.4 211.5 223.5 220.1C225.7 228.7 220.5 237.4 211.9 239.5L147.9 255.5zM304 208C304 172.7 318.3 144 336 144C353.7 144 368 172.7 368 208C368 243.3 353.7 272 336 272C318.3 272 304 243.3 304 208z"/><path class="fa-secondary" d="M0 256C0 114.6 114.6 0 256 0C397.4 0 512 114.6 512 256C512 397.4 397.4 512 256 512C114.6 512 0 397.4 0 256zM411.3 347.3C417.6 341.1 417.6 330.9 411.3 324.7C405.1 318.4 394.9 318.4 388.7 324.7L349.4 363.1C341.7 371.7 331.3 376 320.4 376C312.7 376 305.1 373.8 298.6 369.8L284.4 360.9C257.5 344.1 224.2 341.1 194.8 352.9C174.2 361.1 150.8 358.7 132.4 346.4L120.9 338.7C113.5 333.8 103.6 335.8 98.69 343.1C93.78 350.5 95.77 360.4 103.1 365.3L114.6 372.1C141.9 391.1 176.3 394.7 206.7 382.6C226.6 374.6 249.2 376.6 267.4 387.1L281.6 396.9C293.3 404.2 306.7 408 320.4 408C339.7 408 358.3 400.3 372 386.6L411.3 347.3zM178.7 103.1C155.5 137.1 120.3 156.4 106.9 160.8C98.56 163.6 94.03 172.7 96.82 181.1C99.62 189.4 108.7 193.1 117.1 191.2C135.7 184.1 177.3 162.8 205.3 120.9C210.2 113.5 208.2 103.6 200.9 98.69C193.5 93.79 183.6 95.77 178.7 103.1V103.1zM204.1 208.5L140.1 224.5C131.5 226.6 126.3 235.3 128.5 243.9C130.6 252.5 139.3 257.7 147.9 255.5L211.9 239.5C220.5 237.4 225.7 228.7 223.5 220.1C221.4 211.5 212.7 206.3 204.1 208.5zM336 272C353.7 272 368 243.3 368 208C368 172.7 353.7 144 336 144C318.3 144 304 172.7 304 208C304 243.3 318.3 272 336 272z"/></svg>
